src/assets/liked.svg

<svg fill="none" height="16" viewBox="0 0 16 16" width="16" xmlns="http://www.w3.org/2000/svg"><path d="m10.9597 2.06641c-1.20669 0-2.28669.58666-2.96003 1.48666-.67333-.9-1.75333-1.48666-2.96-1.48666-2.04666 0-3.70666 1.66666-3.70666 3.72666 0 .79334.12666 1.52667.34666 2.20667 1.05334 3.33336 4.3 5.32666 5.90667 5.87336.22667.08.6.08.82667 0 1.60669-.5467 4.85329-2.54 5.90669-5.87336.22-.68.3466-1.41333.3466-2.20667 0-2.06-1.66-3.72666-3.7066-3.72666z" fill="#ff3141"/></svg>

<svg width="16" height="16" viewBox="0 0 16 16" fill="none" xmlns="http://www.w3.org/2000/svg">
    <path
        d="M10.9597 2.06641C9.75301 2.06641 8.67301 2.65307 7.99967 3.55307C7.32634 2.65307 6.24634 2.06641 5.03967 2.06641C2.99301 2.06641 1.33301 3.73307 1.33301 5.79307C1.33301 6.58641 1.45967 7.31974 1.67967 7.99974C2.73301 11.3331 5.97967 13.3264 7.58634 13.8731C7.81301 13.9531 8.18634 13.9531 8.41301 13.8731C10.0197 13.3264 13.2663 11.3331 14.3197 7.99974C14.5397 7.31974 14.6663 6.58641 14.6663 5.79307C14.6663 3.73307 13.0063 2.06641 10.9597 2.06641Z"
        fill="#FF3141" />
</svg>
